!!!COM: Bach, Johann Sebastian
!!!CDT: 1685/3//-1750/7/28/
!!!OTL@@DE: O Haupt voll Blut und Wunden
!!!OTL@EN:  O sacred head now wounded
!!!OPR: Christmas Oratorio
!!!AGN: 4-Part Chorale
!!!SCT: BH 345
!!!SCT: BWV 248
**harm	**root	**kern	**kern	**kern	**kern
!	!	!bass	!tenor	!alto	!soprno
*	*Iorgan	*Iorgan	*Iorgan	*Iorgan	*Iorgan
*	*	*clefF4	*clefF4	*clefF4	*clefF4
*M4/4	*M4/4	*M4/4	*M4/4	*M4/4	*M4/4
*met(c)	*met(c)	*met(c)	*met(c)	*met(c)	*met(c)
*MM56	*MM56	*MM56	*MM56	*MM56	*MM56
*k[f#]	*k[f#]	*k[f#]	*k[f#]	*k[f#]	*k[f#]
*e:	*e:	*e:	*e:	*e:	*e:
*>[A,A,B]	*>[A,A,B]	*>[A,A,B]	*>[A,A,B]	*>[A,A,B]	*>[A,A,B]
*>A	*>A	*>A	*>A	*>A	*>A
V7	4EE	4BB	4D#	8B	4B
.	.	.	.	8A	.
=1	=1	=1	=1	=1	=1
VI	4FF	4C	4E	8G	4e
.	.	.	.	8A	.
-VII	4GG	4D	4F#	8A	4d
.	.	.	.	8B	.
VI7b	8FF	8E	8G	8B	4c
iio	8BB	8F#	8A	8A	.
III	4CC	4G	4D	8A	4B
.	.	.	.	8G	.
=2	=2	=2	=2	=2	=2
iv	2DD	2C	8E	4G	2A
.	.	.	8D#	.	.
.	.	.	4E	8F#	.
.	.	.	.	8E	.
V	4EE	4BB;	4D#;	4F#;	4B;
V	4EE	4BB	4D#	4B	4f#
=3	=3	=3	=3	=3	=3
i	4AA	8E	8E	4B	4g
.	.	8D	8F#	.	.
VI	4FF	8C	4G	4e	4g
.	.	8BB	.	.	.
ii7D	4BB	8AA	4c	4e	8f#
.	.	8FF#	.	.	16g
.	.	.	.	.	16a
V7	4EE	4BB	8B	4d#	4f#
.	.	.	8A	.	.
=4	=4	=4	=4	=4	=4
i	2.AA	2.EE;	2.G;	2.B;	2.e;
=:|!	=:|!	=:|!	=:|!	=:|!	=:|!
*>B	*>B	*>B	*>B	*>B	*>B
i	4AA	4E	4B	8e	4g
.	.	.	.	8d	.
=5	=5	=5	=5	=5	=5
iiob	4BB	4AA	8A	4c	8f#
.	.	.	8G	.	8e
v	4EE	4BB	4F#	8B	4d
.	.	.	.	8A	.
VI	4FF	8C	8E	4G	4e
.	.	8BB	8D	.	.
iiob	4BB	4AA	8C	4c	4f#
.	.	.	8D	.	.
=6	=6	=6	=6	=6	=6
VIb	4FF	8EE	4E	4c	2g
.	.	8FF#	.	.	.
III	4CC	4GG	8D	8B	.
.	.	.	8C	8A	.
III	4CC	4GG;	4D;	4B;	4g;
III	4CC	4GG	4G	4B	4d
!!linebreak: 2
=7	=7	=7	=7	=7	=7
VI	4FF	8C	8G	4c	4e
.	.	8BB	8A	.	.
V7b/IV	4AA	8AA	4B	8F	4d
.	.	8GG#	.	8E	.
iv	8DD	4AA	8A	8E	8c
vii/IV	8CC#	.	8G#	8D	8B
iv	8DD	4AA	8A	8E	4c
vii7Dc	8GG#	.	8D#	8A	.
=8	=8	=8	=8	=8	=8
I	2.AA	2.EE;	2.E;	2.G#;	2.B;
V7b/-VII	4DD	4C#	4E	4A	4g
=9	=9	=9	=9	=9	=9
-VII	4GG	4D	8D	4A	8f#
.	.	.	8E	.	8g
-VII	4GG	8D	4F#	4d	4a
.	.	8C#	.	.	.
IIIb	4CC	4.BB	8G	8d	4g
.	.	.	8A	8c#	.
V	4EE	.	4B	4d	4f#
.	.	8AA	.	.	.
=10	=10	=10	=10	=10	=10
i7	4AA	8GG	4B	4d	2e
.	.	8EE	.	.	.
V/-VII	4DD	4AA	4A	4c#	.
-VII	4GG	4DD;	4A;	4d;	4f#;
III	4CC	8GG	4G	4d	4B
.	.	8FF#	.	.	.
=11	=11	=11	=11	=11	=11
VIb	8FF	8EE	8G	8G	4c
iio	8BB	8FF#	8F#	8A	.
ib	4AA	[4GG	8F#	4G	4B
.	.	.	8E	.	.
ii7D	4BB	8GG]	4E	4C	4A
.	.	[8FF#	.	.	.
-VIIb	8GG	8FF#]	8D	4A	8d
ivc	8DD	8EE	8E	.	8c
=12	=12	=12	=12	=12	=12
V7b	4EE	4DD#	4F#	4A	2.B;
i	4AA	4EE	4E	4G	.
V	4EE	4BB;	4D#;	4F#;	.
==	==	==	==	==	==
*-	*-	*-	*-	*-	*-
!!chor2scor: -l 2 -s 0.6 -o %b.pmx
!!!YEC: Copyright 2003 by Craig Stuart Sapp
!!!license: GNU General Public License (http://www.gnu.org/copyleft/gpl.html)
!!!SMA: 371 Bach Chorales, edited by Ludwig Erk, C.F. Peters
!!!PDT: 1850, 1865
!!!ONB: Harmony and Root analysis done manually by Craig Sapp
